X:147
T:A Jigg
M:6/8
L:1/8
S:Armitt MS
N:See 'Fill The Tankard
K:C major
B2cd2g|faf g3|g2d def|g2dd2A|B2cd2g|fafg3|e2dc2B|A3c3:||:B2AG2A|B2cd2f|e
2d def||g2dd2A|B2AG2A|B2cd2f|e2dc2B|A3c3:||
